sharp/svg/flip_to_front.svg

<?xml version="1.0" encoding="utf-8"?>
<!-- Generator: Adobe Illustrator 19.1.0, SVG Export Plug-In . SVG Version: 6.00 Build 0)  -->
<svg version="1.1" xmlns="http://www.w3.org/2000/svg" xmlns:xlink="http://www.w3.org/1999/xlink" x="0px" y="0px" width="24px"
	 height="24px" viewBox="0 0 24 24" enable-background="new 0 0 24 24" xml:space="preserve">
<g id="Header_x2F_BG" display="none">
	<rect x="-270" y="-402" display="inline" fill="#F1F1F2" width="520" height="520"/>
</g>
<g id="Bounding_Boxes">
	<g id="ui_x5F_spec_x5F_header_copy_3">
	</g>
	<path fill="none" d="M0,0h24v24H0V0z"/>
</g>
<g id="Rounded" display="none">
	<g id="ui_x5F_spec_x5F_header_copy_5" display="inline">
	</g>
	<path display="inline" d="M3,13h2v-2H3V13z M3,17h2v-2H3V17z M5,21v-2H3C3,20.1,3.89,21,5,21z M3,9h2V7H3V9z M15,21h2v-2h-2V21z
		 M19,3H9C7.89,3,7,3.9,7,5v10c0,1.1,0.89,2,2,2h10c1.1,0,2-0.9,2-2V5C21,3.9,20.1,3,19,3z M18,15h-8c-0.55,0-1-0.45-1-1V6
		c0-0.55,0.45-1,1-1h8c0.55,0,1,0.45,1,1v8C19,14.55,18.55,15,18,15z M11,21h2v-2h-2V21z M7,21h2v-2H7V21z"/>
</g>
<g id="Sharp" fill="currentColor">
	<g id="ui_x5F_spec_x5F_header_copy_4">
	</g>
	<path d="M3,13h2v-2H3V13z M3,17h2v-2H3V17z M3,9h2V7H3V9z M15,21h2v-2h-2V21z M21,3H7v14h14V3z M19,15H9V5h10V15z M11,21h2v-2h-2
		V21z M7,21h2v-2H7V21z M3,21h2v-2H3V21z"/>
</g>
<g id="Outline" display="none">
	<g id="ui_x5F_spec_x5F_header" display="inline">
	</g>
	<path display="inline" d="M3,13h2v-2H3V13z M3,17h2v-2H3V17z M5,21v-2H3C3,20.1,3.89,21,5,21z M3,9h2V7H3V9z M15,21h2v-2h-2V21z
		 M19,3H9C7.89,3,7,3.9,7,5v10c0,1.1,0.89,2,2,2h10c1.1,0,2-0.9,2-2V5C21,3.9,20.1,3,19,3z M19,15H9V5h10V15z M11,21h2v-2h-2V21z
		 M7,21h2v-2H7V21z"/>
</g>
<g id="Duotone" display="none">
	<g id="ui_x5F_spec_x5F_header_copy_2" display="inline">
	</g>
	<path display="inline" d="M3,13h2v-2H3V13z M3,17h2v-2H3V17z M5,21v-2H3C3,20.1,3.89,21,5,21z M3,9h2V7H3V9z M15,21h2v-2h-2V21z
		 M19,3H9C7.89,3,7,3.9,7,5v10c0,1.1,0.89,2,2,2h10c1.1,0,2-0.9,2-2V5C21,3.9,20.1,3,19,3z M19,15H9V5h10V15z M11,21h2v-2h-2V21z
		 M7,21h2v-2H7V21z"/>
</g>
<g id="Fill" display="none">
	<g id="ui_x5F_spec_x5F_header_copy" display="inline">
	</g>
	<path display="inline" d="M3,13h2v-2H3V13z M3,17h2v-2H3V17z M5,21v-2H3C3,20.1,3.89,21,5,21z M3,9h2V7H3V9z M15,21h2v-2h-2V21z
		 M19,3H9C7.89,3,7,3.9,7,5v10c0,1.1,0.89,2,2,2h10c1.1,0,2-0.9,2-2V5C21,3.9,20.1,3,19,3z M19,15H9V5h10V15z M11,21h2v-2h-2V21z
		 M7,21h2v-2H7V21z"/>
</g>
<g id="nyt_x5F_exporter_x5F_info" display="none">
</g>
</svg>

<svg xmlns="http://www.w3.org/2000/svg" width="24" height="24"><path fill="none" d="M0 0h24v24H0V0z"/><g fill="currentColor"><path d="M3 13h2v-2H3v2zm0 4h2v-2H3v2zm0-8h2V7H3v2zm12 12h2v-2h-2v2zm6-18H7v14h14V3zm-2 12H9V5h10v10zm-8 6h2v-2h-2v2zm-4 0h2v-2H7v2zm-4 0h2v-2H3v2z"/></g></svg>
